X: 56
T: No_60_Buffalo_Dance_Song_(a).krn
N: Derived from No_60_Buffalo_Dance_Song_(a).krn
%%abc-version 2.0
%%abcx-abcm2ps-target-version 5.9.1 (29 Sep 2008)
%%abc-creator hum2abc beta
%%abcx-conversion-date 2019/03/15 08:25:35
%%humdrum-veritas 2251066454
%%humdrum-veritas-data 434514708
%%linebreak <none>
%%barnumbers 0
L: 1/8
M: 2/4
%%staves {1 2}
V: 1 clef=bass
V: 2 clef=bass
K: F
[V:1] [K:clef=bass][M:2/4]z3/ F,/F,2 ]|:  
[V:2] [K:clef=bass][M:2/4]G,,/G,,/G,,/G,,/ G,,/G,,/G,,/G,,/ ]|:  
[V:1] DD- DD/C/ | 
[V:2] z4 | 
[V:1] D2D/C/B, | 
[V:2] z4 | 
[V:1] [M:3/4]D2E/D/D- DD/C/ | 
[V:2] [M:3/4]z6 | 
[V:1] C2B, z/ B,/B,2 | 
[V:2] z6 | 
[V:1] [M:2/4]CC- CC/B,/ | 
[V:2] [M:2/4]z4 | 
[V:1] C2B,2 | 
[V:2] z4 | 
[V:1] [M:3/4]C2D/C/C- CC/B,/ | 
[V:2] [M:3/4]z6 | 
[V:1] B,3/F,/ F, z B,/F,3/ | 
[V:2] z6 | 
[V:1] [M:2/4]B,B,- B,B,/F,/ | 
[V:2] [M:2/4]z4 | 
[V:1] B,2F, z/ B,/ | 
[V:2] z4 | 
[V:1] B,2B,3/F,/ | 
[V:2] z4 | 
[V:1] B,/F,/F,- F,F, | 
[V:2] z4 | 
[V:1] F,3z | 
[V:2] z4 | 
[V:1] G,F, F,F, | 
[V:2] z4 | 
[V:1] G,/F,/F, F,3/F,/ | 
[V:2] z4 | 
[V:1] [M:3/4]F,3/F,/ F, zz2 | 
[V:2] [M:3/4]z6 | 
[V:1] [M:2/4]F,2F,2 | 
[V:2] [M:2/4]z4 | 
[V:1] F, z/ F,/F,2 :|]  
[V:2] z4 :|]  
[V:1] [M:3/4]F,2F,2F,3/B,/ | 
[V:2] [M:3/4]z6 | 
[V:1] [M:2/4]B,2B,3/F,/ | 
[V:2] [M:2/4]z4 | 
[V:1] B,2CB,- | 
[V:2] z4 | 
[V:1] B,F, F, z/ B,/ | 
[V:2] z4 | 
[V:1] B,2B,3/F,/ | 
[V:2] z4 | 
[V:1] B,/F,/F,- F,F, | 
[V:2] z4 | 
[V:1] F,2F, z | 
[V:2] z4 | 
[V:1] G,F, F,F, | 
[V:2] z4 | 
[V:1] G,/F,/F,F,2 | 
[V:2] z4 | 
[V:1] F,3/F,/F,2 |]  
[V:2] z4 |]  



